Newaita-dark/actions/16/format-text-capitalize.svg

<?xml version="1.0" encoding="UTF-8"?>
<svg xmlns="http://www.w3.org/2000/svg" xmlns:xlink="http://www.w3.org/1999/xlink" width="16pt" height="16pt" viewBox="0 0 16 16" version="1.1">
<g id="surface1">
<path style=" stroke:none;fill-rule:nonzero;fill:rgb(47.058824%,56.470591%,61.176473%);fill-opacity:1;" d="M 8.601562 6.078125 L 8.601562 14.015625 L 9.921875 14.015625 L 9.921875 13.753906 C 10.3125 13.921875 10.761719 14.015625 11.246094 14.015625 C 12.5625 14.015625 13.648438 13.304688 13.855469 12.363281 L 13.890625 12.363281 L 13.890625 12.03125 C 13.890625 10.933594 12.710938 10.046875 11.246094 10.046875 C 10.761719 10.046875 10.3125 10.144531 9.921875 10.3125 L 9.921875 6.078125 Z M 11.246094 11.371094 C 11.980469 11.371094 12.570312 11.664062 12.570312 12.03125 C 12.570312 12.398438 11.980469 12.695312 11.246094 12.695312 C 10.511719 12.695312 9.921875 12.398438 9.921875 12.03125 C 9.921875 11.664062 10.511719 11.371094 11.246094 11.371094 Z M 11.246094 11.371094 "/>
<path style=" stroke:none;fill-rule:nonzero;fill:rgb(47.058824%,56.470591%,61.176473%);fill-opacity:1;" d="M 4.628906 6.078125 C 3.164062 6.078125 1.984375 6.964844 1.984375 8.0625 L 1.984375 14.015625 L 3.308594 14.015625 L 3.308594 11.371094 L 5.953125 11.371094 L 5.953125 14.015625 L 7.277344 14.015625 L 7.277344 8.0625 C 7.277344 6.964844 6.097656 6.078125 4.628906 6.078125 Z M 4.628906 7.402344 C 5.363281 7.402344 5.953125 7.695312 5.953125 8.0625 L 5.953125 10.046875 L 3.308594 10.046875 L 3.308594 8.0625 C 3.308594 7.695312 3.898438 7.402344 4.628906 7.402344 Z M 4.628906 7.402344 "/>
<path style=" stroke:none;fill-rule:nonzero;fill:rgb(14.901961%,65.098041%,60.392159%);fill-opacity:1;" d="M 2.175781 1.660156 C 2.171875 1.53125 2.21875 1.40625 2.308594 1.316406 C 2.394531 1.222656 2.519531 1.171875 2.644531 1.171875 L 6.613281 1.171875 C 6.785156 1.171875 6.941406 1.261719 7.023438 1.410156 C 7.105469 1.558594 7.105469 1.738281 7.015625 1.882812 L 5.03125 5.191406 C 4.949219 5.332031 4.796875 5.417969 4.628906 5.417969 C 4.464844 5.417969 4.3125 5.332031 4.230469 5.191406 L 2.242188 1.882812 C 2.203125 1.816406 2.179688 1.738281 2.175781 1.660156 Z M 3.472656 2.109375 L 4.628906 4.039062 L 5.789062 2.109375 Z M 3.472656 2.109375 "/>
</g>
</svg>

<svg xmlns="http://www.w3.org/2000/svg" width="16pt" height="16pt" viewBox="0 0 16 16"><path d="M8.602 6.078v7.938h1.32v-.262c.39.168.84.262 1.324.262 1.316 0 2.402-.711 2.61-1.653h.035v-.332c0-1.097-1.18-1.984-2.645-1.984-.484 0-.934.098-1.324.265V6.079zm2.644 5.293c.734 0 1.324.293 1.324.66 0 .367-.59.664-1.324.664-.734 0-1.324-.297-1.324-.664 0-.367.59-.66 1.324-.66zm0 0M4.629 6.078c-1.465 0-2.645.887-2.645 1.984v5.954H3.31V11.37h2.644v2.645h1.324V8.062c0-1.097-1.18-1.984-2.648-1.984zm0 1.324c.734 0 1.324.293 1.324.66v1.985H3.31V8.062c0-.367.59-.66 1.32-.66zm0 0" fill="#78909c"/><path d="M2.176 1.66a.465.465 0 0 1 .133-.344.458.458 0 0 1 .336-.144h3.968a.466.466 0 1 1 .402.71l-1.984 3.31a.462.462 0 0 1-.402.226.46.46 0 0 1-.399-.227L2.242 1.883a.493.493 0 0 1-.066-.223zm1.297.45l1.156 1.93 1.16-1.93zm0 0" fill="#26a69a"/></svg>
